static/assets/images/products/kubeshield/kubeshield-community-icon.svg

<svg width="64" height="64" viewBox="0 0 64 64" fill="none" xmlns="http://www.w3.org/2000/svg">
<path d="M32.2937 46C31.5699 45.7066 30.8848 45.3258 30.2534 44.8662C25.8169 41.9962 22.3799 38.1676 19.655 33.6817C16.2425 28.046 14.0848 21.741 13.3288 15.1961C12.9816 12.3561 12.9092 9.48921 13.1125 6.63526C13.1398 6.27102 13.2549 6.18065 13.6081 6.1916C15.5443 6.24364 17.4586 6.1341 19.3044 5.46314C20.7641 4.88563 22.1372 4.10969 23.385 3.15723C24.8775 2.09191 26.3974 1.08137 28.1803 0.552814C29.5113 0.151056 30.8984 -0.0338822 32.2882 0.00509274C32.2882 0.938958 32.2882 1.87008 32.2882 2.80395C31.0461 2.81732 29.813 3.01577 28.6294 3.39275C27.1013 3.94047 25.8169 4.90446 24.5215 5.83559C22.0102 7.63759 19.2606 8.78233 16.155 8.9795C15.7826 9.00141 15.8428 9.22051 15.8401 9.4396C15.8175 12.2346 16.0707 15.0251 16.596 17.7704C17.8448 24.2116 20.2766 30.1435 24.2641 35.3934C26.4455 38.3478 29.1719 40.8576 32.2964 42.7876C32.2854 43.8593 32.2845 44.9301 32.2937 46Z" fill="#2516C7"/>
<path d="M32.2938 46.0001C32.2938 44.9284 32.2938 43.8567 32.2938 42.785C32.3787 42.7412 32.469 42.7001 32.5512 42.648C35.4367 40.8053 37.9773 38.4714 40.0577 35.7522C43.8151 30.9268 46.2305 25.4715 47.6218 19.5424C48.3855 16.2311 48.7687 12.8434 48.7638 9.44518C48.7638 9.11654 48.6843 8.99605 48.3365 8.97414C47.7669 8.93139 47.2001 8.85734 46.6386 8.75231C44.0314 8.30866 41.7557 7.10915 39.6716 5.54814C37.4807 3.90498 35.1145 2.74928 32.2773 2.80953C32.2773 1.87567 32.2773 0.944542 32.2773 0.010677C34.8266 -0.0795799 37.3414 0.620617 39.4771 2.01534C40.3809 2.60414 41.2709 3.21485 42.15 3.83925C44.4411 5.44845 47.1861 6.28413 49.9852 6.22457H50.4261C51.4339 6.22457 51.4476 6.22457 51.4941 7.21047C51.9761 17.4748 49.4648 26.9284 43.7439 35.4811C41.1801 39.3932 37.7964 42.7011 33.8274 45.1758C33.3551 45.5176 32.8394 45.7948 32.2938 46.0001V46.0001Z" fill="#2516C7"/>
<path d="M29.8371 37.3541C27.7758 35.4408 25.9979 33.2433 24.5571 30.828C21.4808 25.7775 19.559 20.1093 18.9293 14.2293C18.8389 13.4351 18.7951 12.6354 18.7293 11.8385C18.7129 11.6303 18.7129 11.4825 19.0032 11.4249C20.519 11.098 21.9869 10.5789 23.3713 9.88037C25.6227 12.5711 27.4841 15.5655 28.9005 18.7754C31.2557 24.1852 31.7056 30.234 30.1767 35.9327C30.0425 36.401 29.8344 36.8557 29.8371 37.3541Z" fill="#2516C7"/>
<path d="M40.1422 9.28613C41.835 10.2801 43.6729 11.0027 45.5893 11.4277C45.9536 11.5017 45.8632 11.7454 45.844 11.9508C45.7278 14.3181 45.3932 16.6696 44.8444 18.9753C43.445 24.9017 40.9556 30.2995 37.0147 34.9825C36.3269 35.8337 35.5663 36.6236 34.7417 37.3432C34.742 37.1782 34.7937 37.0173 34.8896 36.8831C36.1091 34.8195 37.1184 32.6387 37.902 30.3734C38.8329 27.7196 39.4909 24.9777 39.8656 22.1904C40.1601 20.1952 40.3193 18.1823 40.3421 16.1655C40.3394 13.876 40.3805 11.5756 40.1422 9.28613Z" fill="#2516C7"/>
<path d="M29.8369 37.3543C29.8369 36.8558 30.0423 36.4012 30.1682 35.9329C31.6971 30.2342 31.2472 24.1854 28.892 18.7756C27.4756 15.5657 25.6142 12.5713 23.3628 9.88056C24.4878 9.25332 25.5743 8.55921 26.6163 7.80195C26.8901 7.59656 27.0161 7.61299 27.2051 7.9115C28.3513 9.67922 29.3365 11.5462 30.1491 13.49C32.4988 19.159 33.2464 25.0607 32.7069 31.1513C32.4933 33.528 32.0968 35.8847 31.5211 38.2005C31.5016 38.3712 31.4374 38.5337 31.3349 38.6715C30.7993 38.2754 30.2982 37.8348 29.8369 37.3543V37.3543Z" fill="#E86830"/>
<path d="M40.1426 9.28615C40.3808 11.5756 40.3398 13.8761 40.3425 16.1737C40.3197 18.1905 40.1605 20.2034 39.866 22.1987C39.4912 24.986 38.8333 27.7278 37.9024 30.3816C37.1187 32.6469 36.1095 34.8277 34.8899 36.8913C34.794 37.0256 34.7424 37.1864 34.7421 37.3514V37.3514C34.7175 37.351 34.6931 37.3556 34.6704 37.3648C34.6476 37.374 34.6269 37.3877 34.6095 37.4051C34.5922 37.4225 34.5785 37.4432 34.5692 37.4659C34.56 37.4887 34.5555 37.5131 34.5558 37.5376C34.0857 38.0276 33.5642 38.4656 33.0003 38.8439C32.9811 38.8211 32.959 38.8008 32.9346 38.7837C34.3205 36.0239 35.4013 33.1211 36.1579 30.1269C37.1263 26.1695 37.4955 22.0893 37.2534 18.0223C37.0108 14.024 36.2476 10.0745 34.983 6.27368C34.9694 6.22713 34.9639 6.17783 34.9338 6.02173C36.8946 6.8214 38.4118 8.23179 40.1426 9.28615Z" fill="#E86830"/>
<path d="M34.5445 37.5349C34.5441 37.5103 34.5486 37.4859 34.5579 37.4632C34.5671 37.4404 34.5808 37.4197 34.5982 37.4024C34.6155 37.385 34.6362 37.3713 34.659 37.3621C34.6817 37.3528 34.7061 37.3483 34.7307 37.3487L34.5445 37.5349Z" fill="#326CE5"/>
<path d="M32.9897 38.8413L32.9048 38.8933C32.9048 38.8549 32.9185 38.8193 32.924 38.781C32.9484 38.7982 32.9705 38.8184 32.9897 38.8413V38.8413Z" fill="#326CE5"/>
<path d="M6.66219 58.8078C6.57773 59.6931 6.2476 60.3846 5.67178 60.8824C5.09597 61.3763 4.33013 61.6233 3.37428 61.6233C2.70633 61.6233 2.11708 61.4675 1.60653 61.156C1.09981 60.8406 0.708253 60.3941 0.431862 59.8166C0.15547 59.239 0.0115163 58.5684 0 57.8047V57.0295C0 56.2468 0.140115 55.5572 0.420345 54.9606C0.700576 54.3641 1.10173 53.9043 1.6238 53.5813C2.14971 53.2584 2.75624 53.0969 3.44338 53.0969C4.36852 53.0969 5.11324 53.3458 5.67754 53.8435C6.24184 54.3413 6.57006 55.0442 6.66219 55.9523H5.21113C5.14203 55.3558 4.96545 54.9264 4.68138 54.6642C4.40115 54.3983 3.98848 54.2653 3.44338 54.2653C2.80998 54.2653 2.32246 54.4952 1.98081 54.9549C1.64299 55.4109 1.47025 56.0815 1.46257 56.9668V57.7021C1.46257 58.5988 1.6238 59.2827 1.94626 59.7539C2.27255 60.225 2.74856 60.4606 3.37428 60.4606C3.94626 60.4606 4.3762 60.3333 4.66411 60.0788C4.95202 59.8242 5.13436 59.4005 5.21113 58.8078H6.66219Z" fill="#00A651"/>
<path d="M8.06334 58.3689C8.06334 57.7648 8.18426 57.2214 8.4261 56.7389C8.66795 56.2525 9.00768 55.8801 9.4453 55.6218C9.88292 55.3596 10.3858 55.2285 10.9539 55.2285C11.7946 55.2285 12.476 55.4964 12.9981 56.0321C13.524 56.5679 13.8081 57.2784 13.8503 58.1637L13.856 58.4886C13.856 59.0965 13.737 59.6399 13.499 60.1187C13.2649 60.5974 12.9271 60.9679 12.4856 61.2301C12.048 61.4922 11.5413 61.6233 10.9655 61.6233C10.0864 61.6233 9.38196 61.3345 8.85221 60.757C8.3263 60.1756 8.06334 59.4024 8.06334 58.4373V58.3689ZM9.46257 58.4886C9.46257 59.1231 9.59501 59.6209 9.85988 59.9819C10.1248 60.339 10.4933 60.5176 10.9655 60.5176C11.4376 60.5176 11.8042 60.3352 12.0653 59.9705C12.3301 59.6057 12.4626 59.0718 12.4626 58.3689C12.4626 57.7458 12.3263 57.2518 12.0537 56.887C11.785 56.5223 11.4184 56.3399 10.9539 56.3399C10.4971 56.3399 10.1344 56.5204 9.86564 56.8813C9.59693 57.2385 9.46257 57.7743 9.46257 58.4886Z" fill="#00A651"/>
<path d="M16.8464 55.3425L16.8868 55.9865C17.3244 55.4812 17.9232 55.2285 18.6833 55.2285C19.5163 55.2285 20.0864 55.5439 20.3935 56.1746C20.8464 55.5439 21.4837 55.2285 22.3052 55.2285C22.9923 55.2285 23.5029 55.4166 23.8369 55.7927C24.1747 56.1689 24.3474 56.7237 24.3551 57.457V61.5093H22.9559V57.4969C22.9559 57.1055 22.8695 56.8187 22.6967 56.6363C22.524 56.4539 22.238 56.3627 21.8388 56.3627C21.5202 56.3627 21.2591 56.4482 21.0557 56.6192C20.856 56.7864 20.7159 57.0067 20.6353 57.2803L20.6411 61.5093H19.2418V57.4513C19.2226 56.7256 18.8484 56.3627 18.119 56.3627C17.5585 56.3627 17.1612 56.5888 16.9271 57.0409V61.5093H15.5278V55.3425H16.8464Z" fill="#00A651"/>
<path d="M27.5988 55.3425L27.6392 55.9865C28.0768 55.4812 28.6756 55.2285 29.4357 55.2285C30.2687 55.2285 30.8388 55.5439 31.1459 56.1746C31.5988 55.5439 32.2361 55.2285 33.0576 55.2285C33.7447 55.2285 34.2553 55.4166 34.5893 55.7927C34.9271 56.1689 35.0998 56.7237 35.1075 57.457V61.5093H33.7083V57.4969C33.7083 57.1055 33.6219 56.8187 33.4491 56.6363C33.2764 56.4539 32.9904 56.3627 32.5912 56.3627C32.2726 56.3627 32.0115 56.4482 31.8081 56.6192C31.6084 56.7864 31.4683 57.0067 31.3877 57.2803L31.3935 61.5093H29.9942V57.4513C29.975 56.7256 29.6008 56.3627 28.8714 56.3627C28.3109 56.3627 27.9136 56.5888 27.6795 57.0409V61.5093H26.2802V55.3425H27.5988Z" fill="#00A651"/>
<path d="M40.81 60.9052C40.3992 61.3839 39.8157 61.6233 39.0595 61.6233C38.3839 61.6233 37.8714 61.4276 37.5221 61.0363C37.1766 60.6449 37.0038 60.0788 37.0038 59.3378V55.3425H38.4031V59.3207C38.4031 60.1035 38.7313 60.4948 39.3877 60.4948C40.0672 60.4948 40.5259 60.2535 40.7639 59.771V55.3425H42.1631V61.5093H40.8445L40.81 60.9052Z" fill="#00A651"/>
<path d="M45.3781 55.3425L45.4184 56.0549C45.8791 55.504 46.4837 55.2285 47.2322 55.2285C48.5297 55.2285 49.19 55.9637 49.2131 57.4342V61.5093H47.8138V57.514C47.8138 57.1226 47.7274 56.8339 47.5547 56.6477C47.3858 56.4577 47.1075 56.3627 46.7198 56.3627C46.1555 56.3627 45.7351 56.6154 45.4587 57.1207V61.5093H44.0595V55.3425H45.3781Z" fill="#00A651"/>
<path d="M52.6238 61.5093H51.2246V55.3425H52.6238V61.5093ZM51.1382 53.7409C51.1382 53.5282 51.2054 53.3515 51.3397 53.2109C51.4779 53.0703 51.6737 53 51.9271 53C52.1804 53 52.3762 53.0703 52.5144 53.2109C52.6526 53.3515 52.7217 53.5282 52.7217 53.7409C52.7217 53.9499 52.6526 54.1247 52.5144 54.2653C52.3762 54.4021 52.1804 54.4705 51.9271 54.4705C51.6737 54.4705 51.4779 54.4021 51.3397 54.2653C51.2054 54.1247 51.1382 53.9499 51.1382 53.7409Z" fill="#00A651"/>
<path d="M56.3973 53.8435V55.3425H57.4971V56.3684H56.3973V59.8109C56.3973 60.0465 56.4434 60.2174 56.5355 60.3238C56.6315 60.4264 56.8004 60.4777 57.0422 60.4777C57.2035 60.4777 57.3666 60.4587 57.5317 60.4207V61.4922C57.2131 61.5796 56.9059 61.6233 56.6104 61.6233C55.5355 61.6233 54.9981 61.0363 54.9981 59.8622V56.3684H53.9731V55.3425H54.9981V53.8435H56.3973Z" fill="#00A651"/>
<path d="M61.2418 59.5259L62.5086 55.3425H64L61.524 62.444C61.144 63.4813 60.499 64 59.5892 64C59.3858 64 59.1612 63.9658 58.9155 63.8974V62.8259L59.1804 62.843C59.5336 62.843 59.7985 62.7784 59.975 62.6492C60.1555 62.5238 60.2975 62.3111 60.4011 62.0109L60.6027 61.4808L58.4146 55.3425H59.9232L61.2418 59.5259Z" fill="#00A651"/>
</svg>

<svg xmlns="http://www.w3.org/2000/svg" width="64" height="64" fill="none" xmlns:v="https://vecta.io/nano"><g fill="#2516c7"><path d="M32.294 46c-.724-.293-1.409-.674-2.04-1.134-4.436-2.87-7.873-6.699-10.598-11.184-3.413-5.636-5.57-11.941-6.326-18.486-.347-2.84-.42-5.707-.216-8.561.027-.364.142-.455.496-.444 1.936.052 3.851-.058 5.696-.728 1.46-.578 2.833-1.353 4.081-2.306 1.492-1.065 3.012-2.076 4.795-2.604a12.96 12.96 0 0 1 4.108-.548v2.799a12.5 12.5 0 0 0-3.659.589c-1.528.548-2.812 1.512-4.108 2.443-2.511 1.802-5.261 2.947-8.366 3.144-.372.022-.312.241-.315.46a42.5 42.5 0 0 0 .756 8.331c1.249 6.441 3.681 12.373 7.668 17.623 2.181 2.954 4.908 5.464 8.032 7.394L32.294 46z"/><path d="M32.294 46v-3.215l.257-.137c2.886-1.843 5.426-4.177 7.506-6.896 3.757-4.825 6.173-10.281 7.564-16.21a44.62 44.62 0 0 0 1.142-10.097c0-.329-.08-.449-.427-.471a15.65 15.65 0 0 1-1.698-.222c-2.607-.444-4.883-1.643-6.967-3.204-2.191-1.643-4.557-2.799-7.394-2.739V.011a12.37 12.37 0 0 1 7.2 2.005c.904.589 1.794 1.2 2.673 1.824 2.291 1.609 5.036 2.445 7.835 2.385h.441c1.008 0 1.022 0 1.068.986.482 10.264-2.029 19.718-7.75 28.271a32.27 32.27 0 0 1-9.916 9.695 6.55 6.55 0 0 1-1.534.824h0zm-2.457-8.646a29.58 29.58 0 0 1-5.28-6.526 40.12 40.12 0 0 1-5.628-16.599l-.2-2.391c-.016-.208-.016-.356.274-.414a18.2 18.2 0 0 0 4.368-1.545 37.37 37.37 0 0 1 5.529 8.895c2.355 5.41 2.805 11.459 1.276 17.157-.134.468-.342.923-.34 1.421zM40.142 9.286a18.8 18.8 0 0 0 5.447 2.142c.364.074.274.318.255.523-.116 2.367-.451 4.719-1 7.025-1.399 5.926-3.889 11.324-7.83 16.007-.688.851-1.448 1.641-2.273 2.361a.79.79 0 0 1 .148-.46 35.78 35.78 0 0 0 3.012-6.51 41.4 41.4 0 0 0 1.964-8.183 44.72 44.72 0 0 0 .477-6.025c-.003-2.29.038-4.59-.2-6.879z"/></g><path d="M29.837 37.354c0-.498.205-.953.331-1.421 1.529-5.699 1.079-11.747-1.276-17.157a37.37 37.37 0 0 0-5.529-8.895 32.24 32.24 0 0 0 3.253-2.079c.274-.205.4-.189.589.11a35.23 35.23 0 0 1 2.944 5.579c2.35 5.669 3.097 11.571 2.558 17.661-.214 2.377-.61 4.733-1.186 7.049-.02.171-.084.333-.186.471a11.8 11.8 0 0 1-1.498-1.317h0zM40.143 9.286c.238 2.289.197 4.59.2 6.888a44.67 44.67 0 0 1-.477 6.025 41.38 41.38 0 0 1-1.964 8.183 35.8 35.8 0 0 1-3.013 6.51.8.8 0 0 0-.148.46h0c-.025 0-.049.004-.072.013a.18.18 0 0 0-.101.101c-.009.023-.014.047-.013.072A9.47 9.47 0 0 1 33 38.844c-.019-.023-.041-.043-.066-.06a42.48 42.48 0 0 0 3.223-8.657 40.74 40.74 0 0 0 1.096-12.105 46.05 46.05 0 0 0-2.27-11.749c-.014-.047-.019-.096-.049-.252 1.961.8 3.478 2.21 5.209 3.264z" fill="#e86830"/><path d="M34.545 37.535c0-.025.004-.049.013-.072a.18.18 0 0 1 .101-.101c.023-.009.047-.014.072-.013l-.186.186zm-1.555 1.306l-.085.052c0-.038.014-.074.019-.112a.34.34 0 0 1 .066.06h0z" fill="#326ce5"/><path d="M6.662 58.808c-.084.885-.415 1.577-.99 2.075s-1.342.741-2.297.741c-.668 0-1.257-.156-1.768-.467s-.898-.762-1.175-1.339S.012 58.57 0 57.806v-.775c0-.783.14-1.472.42-2.069s.681-1.056 1.203-1.379 1.132-.484 1.82-.484c.925 0 1.67.249 2.234.747s.893 1.201.985 2.109H5.211c-.069-.596-.246-1.026-.53-1.288s-.693-.399-1.238-.399c-.633 0-1.121.23-1.463.69s-.511 1.127-.518 2.012v.735c0 .897.161 1.581.484 2.052s.802.707 1.428.707c.572 0 1.002-.127 1.29-.382s.47-.678.547-1.271h1.451zm1.401-.439c0-.604.121-1.147.363-1.63a2.61 2.61 0 0 1 1.019-1.117c.438-.262.941-.393 1.509-.393.841 0 1.522.268 2.044.804s.81 1.246.852 2.132l.006.325c0 .608-.119 1.151-.357 1.63s-.572.849-1.013 1.111-.944.393-1.52.393c-.879 0-1.584-.289-2.113-.866s-.789-1.355-.789-2.32v-.068zm1.399.12c0 .635.132 1.132.397 1.493s.633.536 1.106.536.839-.182 1.1-.547.397-.899.397-1.602c0-.623-.136-1.117-.409-1.482a1.29 1.29 0 0 0-1.1-.547c-.457 0-.82.181-1.088.541s-.403.893-.403 1.607zm7.384-3.146l.04.644c.438-.505 1.036-.758 1.796-.758.833 0 1.403.315 1.71.946.453-.631 1.09-.946 1.912-.946.687 0 1.198.188 1.532.564s.511.931.518 1.664v4.052h-1.399v-4.012c0-.391-.086-.678-.259-.861s-.459-.274-.858-.274c-.319 0-.58.086-.783.257a1.32 1.32 0 0 0-.42.661l.006 4.229h-1.399v-4.058c-.019-.726-.393-1.089-1.123-1.089-.561 0-.958.226-1.192.678v4.468h-1.399v-6.167h1.319zm10.753 0l.04.644c.438-.505 1.036-.758 1.797-.758.833 0 1.403.315 1.71.946.453-.631 1.09-.946 1.912-.946.687 0 1.198.188 1.532.564s.511.931.518 1.664v4.052h-1.399v-4.012c0-.391-.086-.678-.259-.861s-.459-.274-.858-.274c-.319 0-.58.086-.783.257a1.32 1.32 0 0 0-.42.661l.006 4.229h-1.399v-4.058c-.019-.726-.393-1.089-1.123-1.089-.561 0-.958.226-1.192.678v4.468H26.28v-6.167h1.319zm13.211 5.562c-.411.479-.994.718-1.751.718-.676 0-1.188-.196-1.537-.587s-.518-.957-.518-1.698v-3.995h1.399v3.978c0 .783.328 1.174.985 1.174.679 0 1.138-.241 1.376-.724v-4.428h1.399v6.167h-1.319l-.034-.604zm4.568-5.562l.04.712c.461-.551 1.065-.826 1.814-.826 1.297 0 1.958.735 1.981 2.206v4.075h-1.399v-3.995c0-.391-.086-.68-.259-.866s-.447-.285-.835-.285c-.564 0-.985.253-1.261.758v4.389H44.06v-6.167h1.319zm7.246 6.166h-1.399v-6.167h1.399v6.167zm-1.486-7.768c0-.213.067-.389.202-.53s.334-.211.587-.211.449.07.587.211.207.317.207.53a.71.71 0 0 1-.207.524c-.138.14-.334.205-.587.205s-.449-.068-.587-.205a.73.73 0 0 1-.202-.524zm5.259.103v1.499h1.1v1.026h-1.1v3.442c0 .236.046.407.138.513s.265.154.507.154c.161 0 .324-.019.489-.057v1.072a3.48 3.48 0 0 1-.921.131c-1.075 0-1.612-.587-1.612-1.761v-3.494h-1.025v-1.026h1.025v-1.499h1.399zm4.845 5.682l1.267-4.183H64l-2.476 7.102C61.144 63.481 60.499 64 59.589 64a2.53 2.53 0 0 1-.674-.103v-1.072l.265.017c.353 0 .618-.065.795-.194s.322-.338.426-.638l.202-.53-2.188-6.138h1.509l1.319 4.183z" fill="#00a651"/></svg>
